X:1
T:Gratias agimus tibi
T:Gratias agimus tibi
T:Hans Leo Haßler
C:Hans Leo Haßler
%%score [ 1 2 3 4 ]
L:1/8
Q:1/4=80
M:2/2
K:F
V:1 treble-8 nm="T1"
V:2 treble-8 nm="T2"
V:3 bass nm="B1"
V:4 bass nm="B2"
V:1
 z4 d4- | d2 d2 d4 | d6 d2 | ^c4 d4 | e4 f3 f | e4 d4- | d4 ^c4- | c4 z4 | z2 d2 d2 d2 | %9
w: Gra-|* ti- as|a- gi-|mus ti-|bi, Do- mi-|ne De-|* us,||pro u- ni-|
 (gf/e/ d2) e2 f2- | f2 f2 e3 e | d2 (e3 d d2- | d2 ^c2) d4 | z4 z2 z d | f2 e d ^c2 d ^f | %15
w: ver- * * * sis be-|* ne- fi- ci-|is tu- * *|* * is.|qui|vi- vis et re- gnas, qui|
 g2 e e =f2 d2 | e4 d2 d2 | e3 e f2 (g2- | gf f4) e2 | f2 e4 ^f2 | (g=fed ^c2) e2- | e2 (d4 ^c2) | %22
w: vi- vis et re- gnas|De- us per|o- mni- a sæ-|* * * cu-|la sæ- cu-|lo- * * * * rum,|* A- *|
[M:3/4] !breath!d4 f2 | e3 e e2 | f3 f d2 | e3 f d2 | f4 e2 | !breath!f4 f2 | e3 e ^f2 | g3 g e2 | %30
w: men, per|o- mni- a|sæ- cu- la|sæ- cu- lo-|rum, A-|men, per|o- mni- a|sæ- cu- la|
 f2 e2 d2 | d4 ^c2 | !breath!d4 f2 | e3 e ^f2 | g3 g e2 | f2 e2 d2 | d4 ^c2 | %37
w: sæ- cu- lo-|rum, A-|men, per|o- mni- a|sæ- cu- la|sæ- cu- lo-|rum, A-|
[M:2/2] !breath!d2 (ag fede | fedc BG g2) | !fermata!^f8 |] %40
w: men, A- * * * * *||men.|
V:2
 A6 A2 | A4 (B4- | B2 A4) G2 | A4 =B4 | =c2 c4 c2 | c4 (BA A2- | A2 G2) A4 | z4 z2 A2 | A2 A2 =B4 | %9
w: Gra- ti-|as a-|* * gi-|mus ti-|bi, Do- mi-|ne De- * *|* * us,|pro|u- ni- ver-|
 =B4 (c_BA=B | c2) c2 (cG c2- | c) c B2 A4 | A4 z2 A2 | B2 A G ^F2 !breath!G B | c2 B A G2 A d | %15
w: sis be- * * *|* ne- fi- * *|* ci- is tu-|is. Qui|vi- vis et re- gnas, qui|vi- vis et re- gnas, qui|
 d2 =c c c2 =B2 | (cG c2) =B2 B2 | c3 c d4 | c6 c2 | A2 c4 c2 | d2 B2 A4- | A8 | %22
w: vi- vis et re- gnas|De- * * us per|o- mni- a|sæ- cu-|la sæ- cu-|lo- rum, A-||
[M:3/4] !breath!A4 d2 | ^c3 c c2 | d3 d =B2 | c2 c2 _B2 | c2 c4 | !breath!A4 c2 | c3 c c2 | %29
w: men, per|o- mni- a|sæ- cu- la|sæ- cu- lo-|rum, A-|men, per|o- mni- a|
 d3 d c2 | c2 c2 A2 | B2 A4 | !breath!A4 d2 | ^c3 c d2 | d3 d =c2 | c2 c2 A2 | G2 A4 | %37
w: sæ- cu- la|sæ- cu- lo-|rum, A-|men, per|o- mni- a|sæ- cu- la|sæ- cu- lo-|rum, A-|
[M:2/2] A4 (DEFG | A2) (Bc) d4 | !fermata!d8 |] %40
w: men, A- * * *|* men, * A-|men.|
V:3
 ^F,6 F,2 | ^F,4 (G,3 =F,/E,/ | D,E, F,4) D,2 | E,4 G,4 | G,4 A,3 A, | (A,E, A,2) (F,3 E, | %6
w: Gra- ti-|as a- * *|* * * gi-|mus ti-|bi, Do- mi-|ne _ _ De- *|
 D,4) !breath!E,2 E,2 | E,2 E,2 (A,G,/F,/ E,2) | !breath!^F,2 F,2 (G,3 =F,/E,/ | D,2) G,2 C,2 C2 | %10
w: * us, pro|u- ni- ver- * * *|sis, pro u- * *|* ni- ver- sis|
 A,2 A,2 G,3 G, | G,2 (G,3 F,F,E,/D,/ | E,4) D,2 F,2 | F,2 E, D, C,2 !breath!D, G, | %14
w: be- ne- fi- ci-|is tu- * * * *|* is. Qui|vi- vis et re- gnas, qui|
 A,2 G, F, E,2 D, A, | B,2 G, G, A,2 G,2 | G,4 G,2 G,2 | G,3 G, B,4 | (A,4 G,3) G, | F,2 G,4 A,2 | %20
w: vi- vis et re- gnas, qui|vi- vis et re- gnas|De- us per|o- mni- a|sæ- * cu-|la sæ- cu-|
 (B,A,G,F, E,2) =C,2 | (F,4 E,4) |[M:3/4] !breath!^F,4 A,2 | A,3 A, A,2 | A,3 A, G,2 | %25
w: lo- * * * * rum,|A- *|men, per|o- mni- a|sæ- cu- la|
 G,2 A,2 F,2 | A,2 G,4 | !breath!F,4 A,2 | G,3 G, A,2 | B,3 B, G,2 | A,2 G,2 ^F,2 | G,2 E,4 | %32
w: sæ- cu- lo-|rum, A-|men, per|o- mni- a|sæ- cu- la|sæ- cu- lo-|rum, A-|
 !breath!^F,4 A,2 | A,3 A, A,2 | B,3 B, G,2 | A,2 G,2 F,2 | D,2 E,4 | %37
w: men, per|o- mni- a|sæ- cu- la|sæ- cu- lo-|rum, A-|
[M:2/2] !breath!F,2 (D,E, F,G,A,G, | F,2) F,2 B,4 | !fermata!A,8 |] %40
w: men, A- * * * * *|* men, A-|men.|
V:4
 D,6 D,2 | D,4 (G,,4- | G,,2 A,,2 B,,3) B,, | A,,4 G,,4 | C,4 F,,3 F,, | C,4 (D,3 C, | B,,4) A,,4 | %7
w: Gra- ti-|as a-|* * * gi-|mus ti-|bi, Do- mi-|ne De- *|* us,|
 z2 A,,2 A,,2 A,,2 | D,4 G,,4- | G,,4 z2 F,,2- | F,,2 F,,2 C,3 C, | G,,4 A,,4- | A,,4 D,2 D,2 | %13
w: pro u- ni-|ver- sis|* be-|* ne- fi- ci-|is tu-|* is. Qui|
 D,2 C, B,, A,,2 G,,2 | z4 z2 z D, | G,,2 C, C, F,,2 G,,2 | C,4 G,,2 G,,2 | C,3 C, (B,,>A,, G,,2) | %18
w: vi- vis et re- gnas,|qui|vi- vis et re- gnas|De- us per|o- mni- a _ _|
 (A,,3 B,, C,2) C,2 | F,,2 C,4 A,,2 | G,,4 A,,4 | (F,,3 G,, A,,4) |[M:3/4] !breath!D,4 D,2 | %23
w: sæ- * * cu-|la sæ- cu-|lo- rum,|A- * *|men, per|
 A,,3 A,, A,,2 | D,3 D, G,,2 | C,2 A,,2 B,,2 | F,,2 C,4 | !breath!F,,4 F,,2 | C,3 C, A,,2 | %29
w: o- mni- a|sæ- cu- la|sæ- cu- lo-|rum, A-|men, per|o- mni- a|
 G,,3 G,, C,2 | F,2 C,2 D,2 | G,,2 A,,4 | !breath!D,4 D,2 | A,,3 A,, D,2 | G,,3 G,, C,2 | %35
w: sæ- cu- la|sæ- cu- lo-|rum, A-|men, per|o- mni- a|sæ- cu- la|
 F,2 C,2 D,2 | B,,2 A,,4 |[M:2/2] !breath!D,2 (F,G, A,G,F,E, | D,C,B,,A,, G,,4) | !fermata!D,8 |] %40
w: sæ- cu- lo-|rum, A-|men, A- * * * * *||men.|

